;FLAVOR:Marlin
;TIME:4492
;Filament used: 4.93069m
;Layer height: 0.3
;Generated with Cura_SteamEngine 3.6.0
M140 S60
M105
M190 S60
M104 S205
M105
M109 S205
M82 ;absolute extrusion mode
G28 ;Home
G1 Z15.0 F6000 ;Move the platform down 15mm
;Prime the extruder
G92 E0
G1 F200 E3
G92 E0
G92 E0
G1 F1500 E-6.5
;LAYER_COUNT:44
;LAYER:0
M107
G0 F1050 X55.817 Y37.91 Z0.3
;TYPE:SKIRT
G1 F1500 E0
G1 F1200 X56.208 Y37.337 E0.03501
G1 X56.742 Y36.707 E0.07669
G1 X57.093 Y36.37 E0.10124
G1 X57.527 Y36.008 E0.12976
G1 X57.997 Y35.717 E0.15766
G1 X62.306 Y33.445 E0.40349
G1 X62.824 Y33.217 E0.43205
G1 X63.389 Y33.06 E0.46164
G1 X63.96 Y32.946 E0.49103
G1 X64.521 Y32.875 E0.51957
G1 X65.055 Y32.881 E0.54652
G1 X69.735 Y33.247 E0.78341
G1 X70.294 Y33.331 E0.81194
G1 X70.84 Y33.495 E0.84071
G1 X71.542 Y33.761 E0.8786
G1 X72.056 Y33.998 E0.90716
G1 X72.539 Y34.312 E0.93623
G1 X75.145 Y36.285 E1.10119
G1 X75.165 Y36.3 E1.10245
G1 X76.341 Y37.202 E1.17724
G1 X76.657 Y37.471 E1.19818
G1 X80.605 Y41.208 E1.47252
G1 X84.74 Y44.702 E1.74572
G1 X89.095 Y47.978 E2.02073
G1 X93.606 Y50.989 E2.29443
G1 X98.278 Y53.737 E2.56797
G1 X103.121 Y56.23 E2.84285
G1 X112.156 Y60.241 E3.34172
G1 X112.695 Y60.532 E3.37263
G1 X116.835 Y63.192 E3.62096
G1 X117.363 Y63.597 E3.65455
G1 X121.24 Y67.12 E3.91891
G1 X121.653 Y67.556 E3.94922
G1 X124.022 Y70.468 E4.13866
G1 X124.186 Y70.683 E4.15231
G1 X124.851 Y71.624 E4.21046
G1 X125.051 Y71.938 E4.22925
G1 X126.944 Y75.227 E4.42075
G1 X127.073 Y75.471 E4.43468
G1 X127.559 Y76.469 E4.4907
G1 X127.705 Y76.806 E4.50924
G1 X129.045 Y80.353 E4.70058
G1 X129.135 Y80.621 E4.71485
G1 X129.47 Y81.741 E4.77385
G1 X129.567 Y82.138 E4.79447
G1 X130.434 Y86.685 E5.02807
G1 X130.501 Y87.258 E5.05718
G1 X130.663 Y90.942 E5.24328
G1 X130.667 Y91.178 E5.25519
G1 X130.644 Y92.701 E5.33206
G1 X130.608 Y93.174 E5.356
G1 X129.993 Y97.75 E5.589
G1 X129.875 Y98.316 E5.61818
G1 X128.872 Y101.826 E5.8024
G1 X128.804 Y102.041 E5.81378
G1 X128.289 Y103.522 E5.89291
G1 X128.103 Y103.969 E5.91734
G1 X126.074 Y108.108 E6.14997
G1 X125.745 Y108.661 E6.18244
G1 X122.725 Y112.919 E6.44588
G1 X122.342 Y113.381 E6.47617
G1 X119.713 Y116.109 E6.66736
G1 X119.507 Y116.308 E6.68181
G1 X118.655 Y117.074 E6.73963
G1 X118.38 Y117.3 E6.7576
G1 X115.615 Y119.372 E6.93196
G1 X115.429 Y119.503 E6.94344
G1 X114.2 Y120.319 E7.01789
G1 X113.803 Y120.551 E7.0411
G1 X109.726 Y122.628 E7.272
G1 X109.13 Y122.873 E7.30452
G1 X104.155 Y124.467 E7.56816
G1 X103.571 Y124.607 E7.59847
G1 X100.094 Y125.167 E7.7762
G1 X99.864 Y125.197 E7.7879
G1 X98.433 Y125.343 E7.86049
G1 X97.977 Y125.364 E7.88353
G1 X93.388 Y125.307 E8.11513
G1 X92.811 Y125.258 E8.14436
G1 X89.051 Y124.661 E8.33648
G1 X88.809 Y124.615 E8.34891
G1 X87.42 Y124.306 E8.42072
G1 X87.018 Y124.194 E8.44178
G1 X83.468 Y123.004 E8.63073
G1 X83.206 Y122.906 E8.64485
G1 X82.119 Y122.455 E8.70424
G1 X81.79 Y122.3 E8.72259
G1 X78.455 Y120.546 E8.91275
G1 X78.203 Y120.402 E8.9274
G1 X77.22 Y119.79 E8.98583
G1 X76.891 Y119.561 E9.00606
G1 X73.233 Y116.74 E9.23918
G1 X72.755 Y116.305 E9.2718
G1 X69.197 Y112.501 E9.53465
G1 X68.824 Y112.039 E9.56462
G1 X66.846 Y109.169 E9.74052
G1 X66.72 Y108.973 E9.75228
G1 X65.968 Y107.733 E9.82547
G1 X65.772 Y107.368 E9.84637
G1 X64.283 Y104.218 E10.0222
G1 X64.19 Y104.006 E10.03389
G1 X63.645 Y102.656 E10.10736
G1 X63.498 Y102.224 E10.13039
G1 X62.279 Y97.811 E10.36143
G1 X62.158 Y97.177 E10.394
G1 X61.595 Y91.978 E10.65791
G1 X61.573 Y91.613 E10.67636
G1 X61.456 Y84.56 E11.03234
G1 X61.025 Y79.165 E11.30547
G1 X60.285 Y73.779 E11.57983
G1 X59.244 Y68.443 E11.85419
G1 X58.62 Y65.843 E11.98912
G1 X57.119 Y60.576 E12.26551
G1 X55.335 Y55.442 E12.53979
G1 X53.481 Y50.787 E12.79265
G1 X53.309 Y50.248 E12.82121
G1 X53.205 Y49.566 E12.85602
G1 X52.901 Y44.879 E13.09305
G1 X52.905 Y44.314 E13.12156
G1 X52.99 Y43.743 E13.1507
G1 X53.156 Y43.004 E13.18892
G1 X53.319 Y42.463 E13.21743
G1 X53.561 Y41.94 E13.24651
G1 X55.623 Y38.224 E13.46098
G1 X55.817 Y37.91 E13.47961
G0 F1050 X56.147 Y38.136
G1 F1200 X56.538 Y37.563 E13.51461
G1 X57.019 Y36.995 E13.55218
G1 X57.37 Y36.658 E13.57673
G1 X57.783 Y36.317 E13.60376
G1 X58.184 Y36.071 E13.6275
G1 X62.493 Y33.799 E13.87333
G1 X62.985 Y33.584 E13.90043
G1 X63.467 Y33.453 E13.92563
G1 X64.038 Y33.339 E13.95502
G1 X64.57 Y33.273 E13.98207
G1 X65.024 Y33.28 E14.00499
G1 X69.704 Y33.646 E14.24188
G1 X70.234 Y33.727 E14.26894
G1 X70.699 Y33.869 E14.29348
G1 X71.401 Y34.135 E14.33136
G1 X71.887 Y34.361 E14.35841
G1 X72.298 Y34.631 E14.38323
G1 X74.904 Y36.604 E14.54818
G1 X74.922 Y36.617 E14.5493
G1 X76.098 Y37.519 E14.62409
G1 X76.382 Y37.762 E14.64296
G1 X80.335 Y41.504 E14.91765
G1 X84.497 Y45.021 E15.19264
G1 X88.858 Y48.301 E15.46802
G1 X93.394 Y51.329 E15.74324
G1 X98.085 Y54.088 E16.01789
G1 X102.948 Y56.591 E16.2939
G1 X111.994 Y60.607 E16.79337
G1 X112.479 Y60.868 E16.82117
G1 X116.619 Y63.528 E17.0695
G1 X117.094 Y63.893 E17.09973
G1 X120.971 Y67.416 E17.3641
G1 X121.343 Y67.808 E17.39137
G1 X123.712 Y70.72 E17.58081
G1 X123.859 Y70.914 E17.5931
G1 X124.524 Y71.855 E17.65125
G1 X124.704 Y72.137 E17.66813
G1 X126.597 Y75.426 E17.85964
G1 X126.714 Y75.646 E17.87221
G1 X127.2 Y76.644 E17.92823
G1 X127.331 Y76.948 E17.94494
G1 X128.671 Y80.495 E18.13629
G1 X128.752 Y80.735 E18.14907
G1 X129.087 Y81.855 E18.20806
G1 X129.174 Y82.213 E18.22666
G1 X130.041 Y86.76 E18.46026
G1 X130.102 Y87.276 E18.48648
G1 X130.264 Y90.96 E18.67257
G1 X130.267 Y91.172 E18.68327
G1 X130.244 Y92.695 E18.76014
G1 X130.212 Y93.121 E18.7817
G1 X129.597 Y97.697 E19.0147
G1 X129.49 Y98.206 E19.04095
G1 X128.487 Y101.716 E19.22517
G1 X128.426 Y101.909 E19.23539
G1 X127.911 Y103.39 E19.31452
G1 X127.743 Y103.793 E19.33655
G1 X125.714 Y107.932 E19.56918
G1 X125.418 Y108.43 E19.59841
G1 X122.398 Y112.688 E19.86185
G1 X122.054 Y113.103 E19.88906
G1 X119.425 Y115.831 E20.08025
G1 X119.24 Y116.01 E20.09324
G1 X118.388 Y116.776 E20.15106
G1 X118.14 Y116.98 E20.16726
G1 X115.375 Y119.052 E20.34163
G1 X115.207 Y119.17 E20.35199
G1 X113.978 Y119.986 E20.42644
G1 X113.621 Y120.195 E20.44732
G1 X109.544 Y122.272 E20.67822
G1 X109.008 Y122.492 E20.70746
G1 X104.033 Y124.086 E20.9711
G1 X103.507 Y124.212 E20.9984
G1 X100.03 Y124.772 E21.17613
G1 X99.823 Y124.799 E21.18666
G1 X98.392 Y124.945 E21.25925
G1 X97.982 Y124.964 E21.27996
G1 X93.393 Y124.907 E21.51157
G1 X92.873 Y124.862 E21.53791
G1 X89.113 Y124.265 E21.73003
G1 X88.896 Y124.224 E21.74118
G1 X87.507 Y123.915 E21.81299
G1 X87.145 Y123.814 E21.83195
G1 X83.595 Y122.624 E22.0209
G1 X83.359 Y122.536 E22.03361
G1 X82.272 Y122.085 E22.093
G1 X81.976 Y121.946 E22.10951
G1 X78.641 Y120.192 E22.29967
G1 X78.414 Y120.062 E22.31287
G1 X77.431 Y119.45 E22.3713
G1 X77.136 Y119.245 E22.38943
G1 X73.478 Y116.424 E22.62255
G1 X73.047 Y116.032 E22.65195
G1 X69.489 Y112.228 E22.91481
G1 X69.154 Y111.812 E22.94176
G1 X67.176 Y108.942 E23.11767
G1 X67.062 Y108.766 E23.12825
G1 X66.31 Y107.526 E23.20143
G1 X66.133 Y107.197 E23.22029
G1 X64.644 Y104.047 E23.39612
G1 X64.561 Y103.857 E23.40658
G1 X64.016 Y102.507 E23.48005
G1 X63.884 Y102.118 E23.50078
G1 X62.665 Y97.705 E23.73182
G1 X62.556 Y97.134 E23.76116
G1 X61.993 Y91.935 E24.02506
G1 X61.972 Y91.607 E24.04165
G1 X61.855 Y84.537 E24.39849
G1 X61.421 Y79.113 E24.67309
G1 X60.678 Y73.701 E24.94877
G1 X59.637 Y68.37 E25.22288
G1 X59.005 Y65.731 E25.35982
G1 X57.505 Y60.472 E25.6358
G1 X55.709 Y55.302 E25.912
G1 X53.852 Y50.639 E26.1653
G1 X53.692 Y50.127 E26.19237
G1 X53.605 Y49.54 E26.22232
G1 X53.301 Y44.853 E26.45934
G1 X53.306 Y44.317 E26.48639
G1 X53.381 Y43.831 E26.51121
G1 X53.547 Y43.092 E26.54943
G1 X53.703 Y42.579 E26.57649
G1 X53.911 Y42.134 E26.60128
G1 X55.973 Y38.418 E26.81575
G1 X56.147 Y38.136 E26.83247
G0 F1050 X56.478 Y38.361
G1 F1200 X56.869 Y37.788 E26.86748
G1 X57.296 Y37.284 E26.90081
G1 X57.647 Y36.947 E26.92537
G1 X58.038 Y36.626 E26.9509
G1 X58.371 Y36.424 E26.97055
G1 X62.68 Y34.152 E27.21638
G1 X63.144 Y33.953 E27.24186
G1 X63.545 Y33.845 E27.26282
G1 X64.116 Y33.731 E27.29221
G1 X64.619 Y33.671 E27.31777
G1 X64.992 Y33.679 E27.3366
G1 X69.672 Y34.045 E27.5735
G1 X70.172 Y34.124 E27.59904
G1 X70.557 Y34.243 E27.61938
G1 X71.259 Y34.509 E27.65726
G1 X71.716 Y34.725 E27.68277
G1 X72.057 Y34.95 E27.70339
G1 X74.663 Y36.923 E27.86834
G1 X74.679 Y36.935 E27.86935
G1 X75.855 Y37.837 E27.94414
G1 X76.107 Y38.052 E27.96086
G1 X80.076 Y41.809 E28.23666
G1 X84.244 Y45.331 E28.51204
G1 X88.618 Y48.621 E28.78825
G1 X93.195 Y51.676 E29.06595
G1 X97.899 Y54.443 E29.34137
G1 X102.753 Y56.941 E29.61686
G1 X111.832 Y60.972 E30.11816
G1 X112.263 Y61.205 E30.14289
G1 X116.403 Y63.865 E30.39122
G1 X116.825 Y64.189 E30.41807
G1 X120.702 Y67.712 E30.68244
G1 X121.032 Y68.061 E30.70668
G1 X123.401 Y70.973 E30.89612
G1 X123.532 Y71.145 E30.90703
G1 X124.197 Y72.086 E30.96518
G1 X124.357 Y72.337 E30.9802
G1 X126.25 Y75.626 E31.17171
G1 X126.354 Y75.821 E31.18286
G1 X126.84 Y76.819 E31.23888
G1 X126.957 Y77.089 E31.25373
G1 X128.297 Y80.636 E31.44508
G1 X128.369 Y80.85 E31.45648
G1 X128.704 Y81.97 E31.51547
G1 X128.781 Y82.288 E31.53198
G1 X129.648 Y86.835 E31.76558
G1 X129.702 Y87.293 E31.78886
G1 X129.864 Y90.977 E31.97495
G1 X129.867 Y91.166 E31.98449
G1 X129.844 Y92.689 E32.06136
G1 X129.815 Y93.067 E32.08049
G1 X129.2 Y97.643 E32.31349
G1 X129.106 Y98.096 E32.33684
G1 X128.103 Y101.606 E32.52106
G1 X128.048 Y101.778 E32.53018
G1 X127.533 Y103.259 E32.60931
G1 X127.384 Y103.617 E32.62888
G1 X125.355 Y107.756 E32.8615
G1 X125.092 Y108.198 E32.88745
G1 X122.072 Y112.456 E33.1509
G1 X121.766 Y112.826 E33.17513
G1 X119.137 Y115.554 E33.36632
G1 X118.972 Y115.713 E33.37788
G1 X118.12 Y116.479 E33.4357
G1 X117.9 Y116.66 E33.45008
G1 X115.135 Y118.732 E33.62445
G1 X114.986 Y118.837 E33.63365
G1 X113.757 Y119.653 E33.70809
G1 X113.44 Y119.838 E33.72662
G1 X109.363 Y121.915 E33.95752
G1 X108.886 Y122.111 E33.98355
G1 X103.911 Y123.705 E34.24719
G1 X103.444 Y123.817 E34.27142
G1 X99.967 Y124.377 E34.44915
G1 X99.783 Y124.401 E34.45851
G1 X98.352 Y124.547 E34.53111
G1 X97.987 Y124.564 E34.54955
G1 X93.398 Y124.507 E34.78115
G1 X92.936 Y124.467 E34.80455
G1 X89.176 Y123.87 E34.99668
G1 X88.983 Y123.834 E35.00658
G1 X87.594 Y123.525 E35.07839
G1 X87.272 Y123.435 E35.09527
G1 X83.722 Y122.245 E35.28422
G1 X83.513 Y122.167 E35.29547
G1 X82.426 Y121.716 E35.35486
G1 X82.162 Y121.592 E35.36958
G1 X78.827 Y119.838 E35.55974
G1 X78.626 Y119.723 E35.57143
G1 X77.643 Y119.111 E35.62987
G1 X77.38 Y118.928 E35.64603
G1 X73.722 Y116.107 E35.87915
G1 X73.339 Y115.759 E35.90527
G1 X69.781 Y111.955 E36.16812
G1 X69.483 Y111.585 E36.1921
G1 X67.505 Y108.715 E36.368
G1 X67.404 Y108.558 E36.37742
G1 X66.652 Y107.318 E36.45061
G1 X66.495 Y107.027 E36.46729
G1 X65.006 Y103.877 E36.64313
G1 X64.932 Y103.707 E36.65248
G1 X64.387 Y102.357 E36.72595
G1 X64.27 Y102.011 E36.74438
G1 X63.051 Y97.598 E36.97543
G1 X62.954 Y97.091 E37.00148
G1 X62.391 Y91.892 E37.26538
G1 X62.372 Y91.6 E37.28015
G1 X62.255 Y84.514 E37.63779
G1 X61.819 Y79.063 E37.91376
G1 X61.077 Y73.656 E38.18918
G1 X60.026 Y68.274 E38.46592
G1 X59.389 Y65.62 E38.60366
G1 X57.889 Y60.357 E38.87983
G1 X56.082 Y55.156 E39.15769
G1 X54.224 Y50.491 E39.4111
G1 X54.075 Y50.008 E39.43661
G1 X54.004 Y49.514 E39.46179
G1 X53.7 Y44.827 E39.69882
G1 X53.707 Y44.322 E39.72431
G1 X53.771 Y43.919 E39.7449
G1 X53.937 Y43.18 E39.78312
G1 X54.086 Y42.697 E39.80863
G1 X54.261 Y42.328 E39.82924
G1 X56.323 Y38.612 E40.04371
G1 X56.478 Y38.361 E40.05859
G1 F1500 E33.55859
;MESH:11t17p.stl
G0 F1050 X59.099 Y39.061
G0 X60 Y39.972
G0 X61.956 Y41.342
G0 X68.192 Y43.414
G0 X68.158 Y43.507
;TYPE:WALL-INNER
G1 F1500 E40.05859
G1 F1200 X64.558 Y43.507 E40.24027
G1 X63.984 Y43.989 E40.27809
G1 X63.609 Y44.438 E40.30762
G1 X63.318 Y44.944 E40.33707
G1 X63.119 Y45.493 E40.36654
G1 X63.018 Y46.069 E40.39605
G1 X63.019 Y46.652 E40.42548
G1 X63.12 Y47.227 E40.45494
G1 X63.32 Y47.776 E40.48442
G1 X63.613 Y48.281 E40.51389
G1 X63.988 Y48.728 E40.54333
G1 X64.436 Y49.104 E40.57285
G1 X64.942 Y49.395 E40.60231
G1 X65.491 Y49.595 E40.63179
G1 X66.066 Y49.696 E40.66125
G1 X66.649 Y49.696 E40.69068
G1 X67.225 Y49.595 E40.72019
G1 X67.773 Y49.395 E40.74963
G1 X68.279 Y49.104 E40.77908
G1 X68.727 Y48.728 E40.8086
G1 X69.103 Y48.281 E40.83808
G1 X69.395 Y47.776 E40.86751
G1 X69.596 Y47.227 E40.89702
G1 X69.697 Y46.652 E40.92648
G1 X69.698 Y46.069 E40.9559
G1 X69.597 Y45.493 E40.98541
G1 X69.398 Y44.944 E41.01488
G1 X69.107 Y44.438 E41.04434
G1 X68.731 Y43.989 E41.07389
G1 X68.158 Y43.507 E41.11168
G0 F1050 X68.192 Y43.414
G0 X69.139 Y44.416
G0 X69.434 Y44.928
G0 X69.635 Y45.483
G0 X69.737 Y46.066
G0 X69.736 Y46.655
G0 X69.634 Y47.237
G0 X69.431 Y47.792
G0 X69.135 Y48.303
G0 X68.828 Y48.669
G0 X64.847 Y51.961
G0 X64.795 Y52.046
G1 F1200 X63.749 Y51.648 E41.16816
G1 X63.417 Y51.651 E41.18492
G1 X63.152 Y51.701 E41.19852
G1 X62.902 Y51.795 E41.212
G1 X62.669 Y51.93 E41.22559
G1 X62.462 Y52.108 E41.23937
G1 X62.291 Y52.317 E41.253
G1 X62.159 Y52.551 E41.26656
G1 X62.07 Y52.805 E41.28014
G1 X62.058 Y52.88 E41.28397
G1 X61.864 Y53.055 E41.29716
G1 X61.484 Y53.316 E41.32042
G1 X61.222 Y53.453 E41.33534
G1 X61.09 Y53.521 E41.34283
G1 X60.955 Y53.572 E41.35012
G1 X60.942 Y53.577 E41.35082
G1 X60.865 Y53.519 E41.35568
G1 X60.866 Y53.502
G1 X60.878 Y53.371 E41.35917
G1 X60.909 Y53.226 E41.36665
G1 X60.976 Y52.911 E41.3829
G1 X61.118 Y52.493 E41.40518
G1 X61.238 Y52.257 E41.41854
G1 X61.304 Y52.226 E41.42222
G1 X61.527 Y52.069 E41.43598
G1 X61.716 Y51.878 E41.44954
G1 X61.869 Y51.658 E41.46307
G1 X61.984 Y51.414 E41.47668
G1 X62.054 Y51.151 E41.49041
G1 X62.077 Y50.883 E41.50399
G1 X62.052 Y50.615 E41.51757
G1 X61.965 Y50.296 E41.53426
G1 X61.302 Y49.398 E41.59059
G1 X61.023 Y49.222 E41.60724
G1 X60.773 Y49.119 E41.62088
G1 X60.508 Y49.062 E41.63456
G1 X60.24 Y49.053 E41.64809
G1 X59.972 Y49.088 E41.66173
G1 X59.715 Y49.172 E41.67538
G1 X59.479 Y49.297 E41.68885
G1 X59.266 Y49.462 E41.70245
G1 X59.212 Y49.521 E41.70649
G1 X58.956 Y49.562 E41.71957
G1 X58.494 Y49.576 E41.7429
G1 X58.198 Y49.549 E41.7579
G1 X58.058 Y49.537 E41.76499
G1 X57.917 Y49.507 E41.77226
G1 X57.898 Y49.503 E41.77324
G1 X57.865 Y49.413 E41.77808
G1 X57.877 Y49.397
G1 X57.964 Y49.287 E41.78199
G1 X58.063 Y49.187 E41.78909
G1 X58.277 Y48.971 E41.80444
G1 X58.637 Y48.684 E41.82767
G1 X58.856 Y48.551 E41.8406
G1 X58.936 Y48.562 E41.84467
G1 X59.205 Y48.55 E41.85826
G1 X59.468 Y48.493 E41.87184
G1 X59.718 Y48.389 E41.88551
G1 X59.945 Y48.245 E41.89907
G1 X60.143 Y48.064 E41.91261
G1 X60.308 Y47.85 E41.92625
G1 X60.433 Y47.611 E41.93986
G1 X60.533 Y47.298 E41.95644
G1 X60.46 Y46.18 E42.01298
G1 X60.321 Y45.883 E42.02953
G1 X60.167 Y45.662 E42.04313
G1 X59.974 Y45.471 E42.05683
G1 X59.754 Y45.318 E42.07035
G1 X59.51 Y45.203 E42.08396
G1 X59.247 Y45.133 E42.0977
G1 X58.979 Y45.11 E42.11127
G1 X58.71 Y45.135 E42.12491
G1 X58.636 Y45.155 E42.12878
G1 X58.389 Y45.047 E42.14238
G1 X58.012 Y44.821 E42.16456
G1 X57.765 Y44.628 E42.18038
G1 X57.649 Y44.538 E42.18779
G1 X57.553 Y44.443 E42.19461
G1 X57.54 Y44.43 E42.19553
G1 X57.561 Y44.337 E42.20034
G1 X57.575 Y44.332
G1 X57.71 Y44.284 E42.20441
G1 X57.853 Y44.252 E42.21181
G1 X58.147 Y44.186 E42.22701
G1 X58.597 Y44.14 E42.24984
G1 X58.862 Y44.148 E42.26322
G1 X58.923 Y44.199 E42.26723
G1 X59.153 Y44.333 E42.28067
G1 X59.406 Y44.429 E42.29432
G1 X59.674 Y44.477 E42.30806
G1 X59.94 Y44.478 E42.32149
G1 X60.208 Y44.434 E42.33519
G1 X60.462 Y44.342 E42.34882
G1 X60.695 Y44.21 E42.36234
G1 X60.949 Y43.999 E42.379
G1 X61.491 Y43.02 E42.43547
G1 X61.536 Y42.692 E42.45218
G1 X61.524 Y42.423 E42.46577
G1 X61.467 Y42.16 E42.47935
G1 X61.363 Y41.911 E42.49297
G1 X61.221 Y41.684 E42.50648
G1 X61.038 Y41.483 E42.5202
G1 X60.823 Y41.319 E42.53385
G1 X60.585 Y41.195 E42.54739
G1 X60.512 Y41.172 E42.55125
G1 X60.368 Y40.957 E42.56431
G1 X60.162 Y40.538 E42.58787
G1 X60.065 Y40.261 E42.60268
G1 X60.016 Y40.121 E42.61017
G1 X59.985 Y39.984 E42.61726
G1 X59.981 Y39.967 E42.61814
G1 X60.049 Y39.9 E42.62296
G1 X60.067 Y39.904
G1 X60.198 Y39.936 E42.62659
G1 X60.338 Y39.987 E42.63411
