;FLAVOR:Marlin
;TIME:1191
;Filament used: 1.27601m
;Layer height: 0.3
;Generated with Cura_SteamEngine 3.6.0
M140 S60
M105
M190 S60
M104 S205
M105
M109 S205
M82 ;absolute extrusion mode
G28 ;Home
G1 Z15.0 F6000 ;Move the platform down 15mm
;Prime the extruder
G92 E0
G1 F200 E3
G92 E0
G92 E0
G1 F1500 E-6.5
;LAYER_COUNT:43
;LAYER:0
M107
G0 F1050 X79.666 Y75.371 Z0.3
;TYPE:SKIRT
G1 F1500 E0
G1 F1200 X80.093 Y75 E0.02855
G1 X80.484 Y74.741 E0.05221
G1 X81.509 Y74.145 E0.11205
G1 X82.017 Y73.896 E0.1406
G1 X82.486 Y73.739 E0.16556
G1 X88.377 Y72.162 E0.47332
G1 X88.932 Y72.055 E0.50184
G1 X89.345 Y72.027 E0.52273
G1 X90.256 Y72.012 E0.56871
G1 X90.821 Y72.042 E0.59727
G1 X91.328 Y72.14 E0.62333
G1 X97.098 Y73.64 E0.92419
G1 X97.47 Y73.756 E0.94385
G1 X98.132 Y73.999 E0.97944
G1 X98.778 Y74.304 E1.01549
G1 X99.516 Y74.737 E1.05867
G1 X99.982 Y75.057 E1.0872
G1 X100.32 Y75.358 E1.11004
G1 X104.629 Y79.666 E1.41753
G1 X105 Y80.093 E1.44608
G1 X105.258 Y80.483 E1.46968
G1 X105.855 Y81.509 E1.52958
G1 X106.104 Y82.017 E1.55813
G1 X106.262 Y82.487 E1.58316
G1 X107.838 Y88.376 E1.8908
G1 X107.945 Y88.931 E1.91933
G1 X107.974 Y89.4 E1.94304
G1 X107.977 Y90.569 E2.00204
G1 X107.938 Y91.133 E2.03057
G1 X107.841 Y91.614 E2.05533
G1 X106.263 Y97.504 E2.36305
G1 X106.078 Y98.039 E2.39162
G1 X105.87 Y98.457 E2.41518
G1 X105.284 Y99.48 E2.47468
G1 X104.969 Y99.95 E2.50323
G1 X104.642 Y100.32 E2.52815
G1 X100.342 Y104.621 E2.83507
G1 X99.915 Y104.992 E2.86362
G1 X99.532 Y105.246 E2.88681
G1 X98.499 Y105.85 E2.9472
G1 X97.992 Y106.1 E2.97572
G1 X97.514 Y106.261 E3.00118
G1 X91.623 Y107.838 E3.30894
G1 X91.068 Y107.945 E3.33746
G1 X90.599 Y107.974 E3.36118
G1 X89.431 Y107.977 E3.42012
G1 X88.867 Y107.938 E3.44865
G1 X88.386 Y107.841 E3.47341
G1 X82.496 Y106.263 E3.78114
G1 X81.961 Y106.078 E3.8097
G1 X81.543 Y105.87 E3.83326
G1 X80.52 Y105.284 E3.89276
G1 X80.05 Y104.969 E3.92131
G1 X79.68 Y104.642 E3.94623
G1 X75.371 Y100.334 E4.25372
G1 X75 Y99.907 E4.28227
G1 X74.742 Y99.517 E4.30587
G1 X74.145 Y98.491 E4.36577
G1 X73.896 Y97.983 E4.39432
G1 X73.738 Y97.513 E4.41935
G1 X72.162 Y91.623 E4.72704
G1 X72.055 Y91.068 E4.75557
G1 X72.026 Y90.599 E4.77928
G1 X72.023 Y89.431 E4.83823
G1 X72.062 Y88.867 E4.86676
G1 X72.159 Y88.386 E4.89152
G1 X73.737 Y82.496 E5.19924
G1 X73.922 Y81.961 E5.22781
G1 X74.13 Y81.543 E5.25137
G1 X74.716 Y80.52 E5.31087
G1 X75.031 Y80.05 E5.33942
G1 X75.358 Y79.68 E5.36434
G1 X79.666 Y75.371 E5.67183
G0 F1050 X79.949 Y75.654
G1 F1200 X80.355 Y75.304 E5.69888
G1 X80.685 Y75.087 E5.71881
G1 X81.71 Y74.491 E5.77865
G1 X82.193 Y74.257 E5.80574
G1 X82.589 Y74.125 E5.8268
G1 X88.48 Y72.548 E6.13456
G1 X89.007 Y72.449 E6.16162
G1 X89.352 Y72.426 E6.17907
G1 X90.263 Y72.411 E6.22505
G1 X90.798 Y72.443 E6.2521
G1 X91.228 Y72.527 E6.27421
G1 X96.998 Y74.027 E6.57507
G1 X97.333 Y74.131 E6.59277
G1 X97.995 Y74.374 E6.62836
G1 X98.576 Y74.649 E6.6608
G1 X99.314 Y75.082 E6.70398
G1 X99.755 Y75.387 E6.73104
G1 X100.037 Y75.641 E6.75019
G1 X104.346 Y79.949 E7.05768
G1 X104.696 Y80.355 E7.08473
G1 X104.913 Y80.684 E7.10462
G1 X105.51 Y81.71 E7.16453
G1 X105.744 Y82.193 E7.19161
G1 X105.876 Y82.59 E7.21273
G1 X107.452 Y88.479 E7.52037
G1 X107.551 Y89.006 E7.54744
G1 X107.574 Y89.401 E7.5674
G1 X107.577 Y90.57 E7.6264
G1 X107.538 Y91.105 E7.65347
G1 X107.454 Y91.511 E7.67439
G1 X105.876 Y97.401 E7.98211
G1 X105.699 Y97.907 E8.00917
G1 X105.523 Y98.258 E8.02898
G1 X104.937 Y99.281 E8.08848
G1 X104.636 Y99.726 E8.11559
G1 X104.359 Y100.037 E8.13661
G1 X100.059 Y104.338 E8.44353
G1 X99.653 Y104.688 E8.47058
G1 X99.33 Y104.901 E8.4901
G1 X98.297 Y105.505 E8.55049
G1 X97.815 Y105.74 E8.57755
G1 X97.411 Y105.875 E8.59905
G1 X91.52 Y107.452 E8.90681
G1 X90.993 Y107.551 E8.93387
G1 X90.598 Y107.574 E8.95384
G1 X89.43 Y107.577 E9.01278
G1 X88.895 Y107.538 E9.03985
G1 X88.489 Y107.454 E9.06077
G1 X82.599 Y105.876 E9.3685
G1 X82.093 Y105.699 E9.39555
G1 X81.742 Y105.523 E9.41537
G1 X80.719 Y104.937 E9.47486
G1 X80.274 Y104.636 E9.50197
G1 X79.963 Y104.359 E9.52299
G1 X75.654 Y100.051 E9.83048
G1 X75.304 Y99.645 E9.85753
G1 X75.087 Y99.316 E9.87742
G1 X74.49 Y98.29 E9.93733
G1 X74.256 Y97.807 E9.96441
G1 X74.124 Y97.41 E9.98553
G1 X72.548 Y91.52 E10.29322
G1 X72.449 Y90.993 E10.32028
G1 X72.426 Y90.598 E10.34025
G1 X72.423 Y89.43 E10.3992
G1 X72.462 Y88.895 E10.42627
G1 X72.546 Y88.489 E10.44719
G1 X74.124 Y82.599 E10.75491
G1 X74.301 Y82.093 E10.78196
G1 X74.477 Y81.742 E10.80178
G1 X75.063 Y80.719 E10.86128
G1 X75.364 Y80.274 E10.88839
G1 X75.641 Y79.963 E10.90941
G1 X79.949 Y75.654 E11.2169
G0 F1050 X80.232 Y75.937
G1 F1200 X80.617 Y75.608 E11.24245
G1 X80.886 Y75.433 E11.25865
G1 X81.911 Y74.837 E11.31849
G1 X82.367 Y74.618 E11.34401
G1 X82.693 Y74.512 E11.36131
G1 X88.584 Y72.935 E11.66907
G1 X89.081 Y72.843 E11.69458
G1 X89.358 Y72.826 E11.70858
G1 X90.269 Y72.811 E11.75456
G1 X90.774 Y72.843 E11.7801
G1 X91.127 Y72.914 E11.79827
G1 X96.897 Y74.414 E12.09914
G1 X97.195 Y74.507 E12.11489
G1 X97.857 Y74.75 E12.15048
G1 X98.373 Y74.994 E12.17928
G1 X99.111 Y75.427 E12.22246
G1 X99.526 Y75.716 E12.24798
G1 X99.754 Y75.924 E12.26356
G1 X104.063 Y80.232 E12.57105
G1 X104.392 Y80.617 E12.59661
G1 X104.567 Y80.886 E12.6128
G1 X105.164 Y81.912 E12.67271
G1 X105.383 Y82.367 E12.69819
G1 X105.489 Y82.694 E12.71554
G1 X107.065 Y88.583 E13.02319
G1 X107.157 Y89.08 E13.04869
G1 X107.174 Y89.402 E13.06497
G1 X107.177 Y90.571 E13.12396
G1 X107.138 Y91.075 E13.14947
G1 X107.068 Y91.407 E13.16659
G1 X105.49 Y97.297 E13.47432
G1 X105.321 Y97.774 E13.49985
G1 X105.176 Y98.06 E13.51604
G1 X104.59 Y99.083 E13.57553
G1 X104.305 Y99.5 E13.60102
G1 X104.076 Y99.754 E13.61828
G1 X99.776 Y104.055 E13.9252
G1 X99.391 Y104.384 E13.95076
G1 X99.128 Y104.555 E13.96659
G1 X98.095 Y105.159 E14.02698
G1 X97.64 Y105.379 E14.05248
G1 X97.307 Y105.488 E14.07016
G1 X91.416 Y107.065 E14.37792
G1 X90.919 Y107.157 E14.40343
G1 X90.597 Y107.174 E14.4197
G1 X89.429 Y107.177 E14.47865
G1 X88.925 Y107.138 E14.50416
G1 X88.593 Y107.068 E14.52128
G1 X82.703 Y105.49 E14.829
G1 X82.226 Y105.321 E14.85454
G1 X81.94 Y105.176 E14.87072
G1 X80.917 Y104.59 E14.93022
G1 X80.5 Y104.305 E14.95571
G1 X80.246 Y104.076 E14.97297
G1 X75.937 Y99.768 E15.28046
G1 X75.608 Y99.383 E15.30602
G1 X75.433 Y99.114 E15.32221
G1 X74.836 Y98.088 E15.38212
G1 X74.617 Y97.633 E15.4076
G1 X74.511 Y97.306 E15.42495
G1 X72.935 Y91.416 E15.73264
G1 X72.843 Y90.919 E15.75815
G1 X72.826 Y90.597 E15.77442
G1 X72.823 Y89.429 E15.83337
G1 X72.862 Y88.925 E15.85888
G1 X72.932 Y88.593 E15.876
G1 X74.51 Y82.703 E16.18372
G1 X74.679 Y82.226 E16.20926
G1 X74.824 Y81.94 E16.22544
G1 X75.41 Y80.917 E16.28494
G1 X75.695 Y80.5 E16.31043
G1 X75.924 Y80.246 E16.32769
G1 X80.232 Y75.937 E16.63518
G1 F1500 E10.13518
;MESH:small.stl
G0 F1050 X82.468 Y77.424
G0 X83.12 Y78.522
G0 X89.01 Y86.951
G0 X89.04 Y87.046
;TYPE:WALL-INNER
G1 F1500 E16.63518
G1 F1200 X88.336 Y87.379 E16.67448
G1 X87.737 Y87.875 E16.71373
G1 X87.279 Y88.505 E16.75304
G1 X86.994 Y89.228 E16.79226
G1 X86.895 Y90 E16.83153
G1 X86.994 Y90.772 E16.87081
G1 X87.279 Y91.495 E16.91003
G1 X87.737 Y92.125 E16.94934
G1 X88.336 Y92.622 E16.98862
G1 X89.048 Y92.955 E17.02828
G1 X89.805 Y93.098 E17.06716
G1 X90.582 Y93.05 E17.10645
G1 X91.322 Y92.809 E17.14572
G1 X91.979 Y92.392 E17.18499
G1 X92.512 Y91.824 E17.2243
G1 X92.886 Y91.142 E17.26355
G1 X93.08 Y90.389 E17.30279
G1 X93.08 Y89.611 E17.34206
G1 X92.886 Y88.858 E17.3813
G1 X92.512 Y88.176 E17.42055
G1 X91.979 Y87.608 E17.45986
G1 X91.322 Y87.191 E17.49913
G1 X90.582 Y86.95 E17.5384
G1 X89.805 Y86.902 E17.57769
G1 X89.04 Y87.046 E17.61697
G0 F1050 X89.01 Y86.951
G0 X93.539 Y81.581
G0 X93.511 Y81.486
G1 F1200 X93.877 Y81.312 E17.63743
G1 X94.175 Y81.041 E17.65775
G1 X94.358 Y80.731 E17.67592
G1 X94.727 Y79.811 E17.72594
G1 X94.942 Y79.484 E17.74569
G1 X95.363 Y79.05 E17.77621
G1 X96.015 Y78.556 E17.81749
G1 X96.496 Y78.284 E17.84537
G1 X96.897 Y78.512 E17.86865
G1 X96.903 Y79.08 E17.89732
G1 X96.802 Y79.882 E17.93811
G1 X96.638 Y80.459 E17.96838
G1 X96.459 Y80.813 E17.9884
G1 X95.849 Y81.592 E18.03833
G1 X95.672 Y81.904 E18.05644
G1 X95.585 Y82.297 E18.07675
G1 X95.618 Y82.702 E18.09725
G1 X95.771 Y83.079 E18.11779
G1 X95.991 Y83.349 E18.13536
G1 X96.419 Y83.763 E18.16541
G1 X96.648 Y84.006 E18.18226
G1 X96.921 Y84.229 E18.20005
G1 X97.298 Y84.382 E18.22059
G1 X97.703 Y84.415 E18.24109
G1 X98.096 Y84.328 E18.2614
G1 X98.408 Y84.151 E18.27951
G1 X99.187 Y83.541 E18.32944
G1 X99.542 Y83.362 E18.3495
G1 X100.121 Y83.197 E18.37988
G1 X100.922 Y83.097 E18.42062
G1 X101.488 Y83.103 E18.44919
G1 X101.716 Y83.504 E18.47247
G1 X101.443 Y83.986 E18.50042
G1 X100.947 Y84.643 E18.54196
G1 X100.52 Y85.056 E18.57194
G1 X100.189 Y85.273 E18.59192
G1 X99.269 Y85.642 E18.64194
G1 X98.959 Y85.825 E18.66011
G1 X98.688 Y86.123 E18.68043
G1 X98.514 Y86.489 E18.70088
G1 X98.459 Y86.891 E18.72136
G1 X98.514 Y87.241 E18.73924
G1 X98.605 Y87.542 E18.75511
G1 X98.679 Y87.82 E18.76963
G1 X98.753 Y88.134 E18.78591
G1 X98.88 Y88.466 E18.80385
G1 X99.13 Y88.784 E18.82426
G1 X99.463 Y89.013 E18.84465
G1 X99.847 Y89.137 E18.86502
G1 X100.207 Y89.139 E18.88319
G1 X101.187 Y88.999 E18.93314
G1 X101.579 Y89.022 E18.95296
G1 X102.17 Y89.17 E18.98371
G1 X102.914 Y89.485 E19.02448
G1 X103.398 Y89.77 E19.05282
G1 X103.394 Y90.231 E19.07609
G1 X102.913 Y90.516 E19.10431
G1 X102.162 Y90.832 E19.14542
G1 X101.58 Y90.978 E19.1757
G1 X101.187 Y91.001 E19.19557
G1 X100.207 Y90.861 E19.24553
G1 X99.847 Y90.863 E19.2637
G1 X99.463 Y90.987 E19.28406
G1 X99.13 Y91.216 E19.30446
G1 X98.88 Y91.535 E19.32491
G1 X98.755 Y91.863 E19.34262
G1 X98.609 Y92.445 E19.3729
G1 X98.514 Y92.759 E19.38946
G1 X98.459 Y93.109 E19.40734
G1 X98.514 Y93.511 E19.42781
G1 X98.688 Y93.877 E19.44827
G1 X98.959 Y94.175 E19.46859
G1 X99.269 Y94.358 E19.48676
G1 X100.189 Y94.727 E19.53678
G1 X100.516 Y94.942 E19.55653
G1 X100.95 Y95.363 E19.58705
G1 X101.444 Y96.015 E19.62833
G1 X101.716 Y96.496 E19.65621
G1 X101.488 Y96.897 E19.67949
G1 X100.92 Y96.903 E19.70816
G1 X100.118 Y96.802 E19.74895
G1 X99.541 Y96.638 E19.77922
G1 X99.187 Y96.459 E19.79924
G1 X98.408 Y95.849 E19.84917
G1 X98.096 Y95.672 E19.86728
G1 X97.703 Y95.585 E19.88759
G1 X97.298 Y95.618 E19.90809
G1 X96.921 Y95.771 E19.92863
G1 X96.651 Y95.991 E19.9462
G1 X96.237 Y96.419 E19.97625
G1 X95.994 Y96.648 E19.9931
G1 X95.771 Y96.921 E20.01089
G1 X95.618 Y97.298 E20.03143
G1 X95.585 Y97.703 E20.05193
G1 X95.672 Y98.096 E20.07224
G1 X95.849 Y98.408 E20.09035
G1 X96.459 Y99.187 E20.14028
G1 X96.638 Y99.542 E20.16034
G1 X96.803 Y100.121 E20.19072
G1 X96.903 Y100.919 E20.23131
G1 X96.897 Y101.488 E20.26003
G1 X96.496 Y101.716 E20.28331
G1 X96.014 Y101.443 E20.31126
G1 X95.357 Y100.947 E20.3528
G1 X94.944 Y100.52 E20.38278
G1 X94.727 Y100.189 E20.40276
G1 X94.358 Y99.269 E20.45278
G1 X94.175 Y98.959 E20.47095
G1 X93.877 Y98.688 E20.49127
G1 X93.511 Y98.514 E20.51173
G1 X93.109 Y98.459 E20.5322
G1 X92.759 Y98.514 E20.55008
G1 X92.458 Y98.605 E20.56595
G1 X92.18 Y98.679 E20.58047
G1 X91.866 Y98.753 E20.59675
G1 X91.534 Y98.88 E20.61469
G1 X91.216 Y99.13 E20.6351
G1 X90.987 Y99.463 E20.6555
G1 X90.863 Y99.847 E20.67586
G1 X90.861 Y100.207 E20.69403
G1 X91.001 Y101.187 E20.74399
G1 X90.978 Y101.579 E20.7638
G1 X90.83 Y102.17 E20.79455
G1 X90.515 Y102.914 E20.83532
G1 X90.23 Y103.397 E20.86362
G1 X89.769 Y103.394 E20.88689
G1 X89.484 Y102.913 E20.9151
G1 X89.168 Y102.162 E20.95622
G1 X89.022 Y101.58 E20.9865
G1 X88.999 Y101.187 E21.00637
G1 X89.139 Y100.207 E21.05633
G1 X89.137 Y99.847 E21.07449
G1 X89.013 Y99.463 E21.09486
G1 X88.784 Y99.13 E21.11525
G1 X88.465 Y98.88 E21.13571
G1 X88.137 Y98.755 E21.15342
G1 X87.548 Y98.607 E21.18407
G1 X87.241 Y98.514 E21.20026
G1 X86.891 Y98.459 E21.21814
G1 X86.489 Y98.514 E21.23861
G1 X86.123 Y98.688 E21.25906
G1 X85.825 Y98.959 E21.27939
G1 X85.642 Y99.269 E21.29756
G1 X85.273 Y100.189 E21.34758
G1 X85.058 Y100.516 E21.36733
G1 X84.637 Y100.95 E21.39784
G1 X83.985 Y101.444 E21.43912
G1 X83.504 Y101.716 E21.46701
G1 X83.103 Y101.488 E21.49029
G1 X83.097 Y100.919 E21.51901
G1 X83.198 Y100.118 E21.55975
G1 X83.362 Y99.541 E21.59002
G1 X83.541 Y99.187 E21.61004
G1 X84.151 Y98.408 E21.65997
G1 X84.328 Y98.096 E21.67807
G1 X84.415 Y97.703 E21.69839
G1 X84.382 Y97.298 E21.71889
G1 X84.229 Y96.921 E21.73942
G1 X84.009 Y96.651 E21.757
G1 X83.571 Y96.226 E21.7878
G1 X83.352 Y95.994 E21.8039
G1 X83.079 Y95.771 E21.82169
G1 X82.702 Y95.618 E21.84222
G1 X82.297 Y95.585 E21.86273
G1 X81.904 Y95.672 E21.88304
G1 X81.592 Y95.849 E21.90114
G1 X80.813 Y96.459 E21.95107
G1 X80.458 Y96.638 E21.97114
G1 X79.879 Y96.803 E22.00152
G1 X79.078 Y96.903 E22.04226
G1 X78.512 Y96.897 E22.07082
G1 X78.284 Y96.496 E22.0941
G1 X78.557 Y96.014 E22.12206
G1 X79.053 Y95.357 E22.1636
G1 X79.48 Y94.944 E22.19358
G1 X79.811 Y94.727 E22.21355
G1 X80.731 Y94.358 E22.26358
G1 X81.041 Y94.175 E22.28174
G1 X81.312 Y93.877 E22.30207
G1 X81.486 Y93.511 E22.32252
G1 X81.541 Y93.109 E22.343
G1 X81.486 Y92.759 E22.36088
G1 X81.389 Y92.439 E22.37775
G1 X81.32 Y92.181 E22.39123
G1 X81.247 Y91.866 E22.40755
G1 X81.12 Y91.534 E22.42549
G1 X80.87 Y91.216 E22.4459
G1 X80.537 Y90.987 E22.46629
G1 X80.153 Y90.863 E22.48666
G1 X79.793 Y90.861 E22.50483
G1 X78.813 Y91.001 E22.55478
G1 X78.421 Y90.978 E22.5746
G1 X77.83 Y90.83 E22.60535
G1 X77.086 Y90.515 E22.64612
G1 X76.602 Y90.23 E22.67446
G1 X76.606 Y89.769 E22.69773
G1 X77.087 Y89.484 E22.72594
G1 X77.838 Y89.168 E22.76706
G1 X78.42 Y89.022 E22.79734
G1 X78.813 Y88.999 E22.81721
G1 X79.793 Y89.139 E22.86717
G1 X80.153 Y89.137 E22.88534
G1 X80.537 Y89.013 E22.9057
G1 X80.87 Y88.784 E22.92609
G1 X81.12 Y88.465 E22.94655
G1 X81.245 Y88.137 E22.96426
G1 X81.392 Y87.552 E22.9947
G1 X81.486 Y87.241 E23.0111
G1 X81.541 Y86.891 E23.02898
G1 X81.486 Y86.489 E23.04945
G1 X81.312 Y86.123 E23.0699
G1 X81.041 Y85.825 E23.09023
G1 X80.731 Y85.642 E23.1084
G1 X79.811 Y85.273 E23.15842
G1 X79.484 Y85.058 E23.17817
G1 X79.05 Y84.637 E23.20868
G1 X78.556 Y83.985 E23.24997
G1 X78.284 Y83.504 E23.27785
G1 X78.512 Y83.103 E23.30113
G1 X79.08 Y83.097 E23.3298
G1 X79.882 Y83.198 E23.37059
G1 X80.459 Y83.362 E23.40086
G1 X80.813 Y83.541 E23.42088
G1 X81.592 Y84.151 E23.47081
G1 X81.904 Y84.328 E23.48891
G1 X82.297 Y84.415 E23.50923
G1 X82.702 Y84.382 E23.52973
G1 X83.079 Y84.229 E23.55027
G1 X83.349 Y84.009 E23.56784
G1 X83.763 Y83.581 E23.59789
G1 X84.006 Y83.352 E23.61474
G1 X84.229 Y83.079 E23.63253
G1 X84.382 Y82.702 E23.65306
G1 X84.415 Y82.297 E23.67357
G1 X84.328 Y81.904 E23.69388
G1 X84.151 Y81.592 E23.71199
G1 X83.541 Y80.813 E23.76192
G1 X83.362 Y80.458 E23.78198
G1 X83.197 Y79.879 E23.81236
G1 X83.097 Y79.078 E23.8531
G1 X83.103 Y78.512 E23.88166
G1 X83.504 Y78.284 E23.90494
G1 X83.986 Y78.557 E23.9329
G1 X84.641 Y79.052 E23.97433
G1 X85.056 Y79.48 E24.00442
G1 X85.273 Y79.811 E24.02439
G1 X85.642 Y80.731 E24.07441
G1 X85.825 Y81.041 E24.09258
G1 X86.123 Y81.312 E24.11291
G1 X86.489 Y81.486 E24.13336
G1 X86.891 Y81.541 E24.15383
G1 X87.241 Y81.486 E24.17171
G1 X87.542 Y81.395 E24.18758
G1 X87.82 Y81.321 E24.2021
G1 X88.134 Y81.247 E24.21838
G1 X88.466 Y81.12 E24.23632
G1 X88.784 Y80.87 E24.25673
G1 X89.013 Y80.537 E24.27713
G1 X89.137 Y80.153 E24.29749
G1 X89.139 Y79.793 E24.31566
G1 X88.999 Y78.813 E24.36562
G1 X89.022 Y78.421 E24.38543
G1 X89.17 Y77.83 E24.41618
G1 X89.485 Y77.086 E24.45695
G1 X89.77 Y76.603 E24.48526
G1 X90.231 Y76.606 E24.50852
G1 X90.516 Y77.087 E24.53674
G1 X90.832 Y77.838 E24.57785
G1 X90.978 Y78.42 E24.60813
G1 X91.001 Y78.813 E24.628
G1 X90.861 Y79.793 E24.67796
G1 X90.863 Y80.153 E24.69613
G1 X90.987 Y80.537 E24.71649
G1 X91.216 Y80.87 E24.73689
G1 X91.535 Y81.12 E24.75734
G1 X91.863 Y81.245 E24.77505
G1 X92.452 Y81.393 E24.8057
G1 X92.759 Y81.486 E24.82189
G1 X93.109 Y81.541 E24.83977
G1 X93.511 Y81.486 E24.86024
G0 F1050 X93.539 Y81.581
G0 X87.708 Y87.848
G0 X87.244 Y88.486
G0 X86.956 Y89.219
G0 X86.855 Y90
G0 X86.956 Y90.781
G0 X87.244 Y91.514
G0 X87.619 Y92.03
G0 X88.34 Y92.733
G0 X88.552 Y92.281
;TYPE:WALL-OUTER
G1 F1200 X89.172 Y92.571 E24.89479
